src/assets/outline/AlignVertically.svg

<?xml version="1.0" encoding="UTF-8"?>
<svg width="24" height="24" viewBox="0 0 24 24" xmlns="http://www.w3.org/2000/svg">
 <path d="m17.4 20h-10.8c-1.92 0-2.85-0.98-2.85-2.98v-1.04c0-2 0.93-2.98 2.85-2.98h10.8c1.92 0 2.85 0.98 2.85 2.98v1.04c0 2-0.93 2.98-2.85 2.98zm-10.8-5.5c-1.01 0-1.35 0.21-1.35 1.48v1.04c0 1.27 0.34 1.48 1.35 1.48h10.8c1.01 0 1.35-0.21 1.35-1.48v-1.04c0-1.27-0.34-1.48-1.35-1.48h-10.8z"/>
 <path d="m15.4 11.5h-6.8c-1.92 0-2.85-0.98-2.85-2.98v-1.04c0-2.01 0.93-2.98 2.85-2.98h6.8c1.92 0 2.85 0.98 2.85 2.98v1.04c0 2-0.93 2.98-2.85 2.98zm-6.8-5.5c-1.01 0-1.35 0.21-1.35 1.48v1.04c0 1.27 0.34 1.48 1.35 1.48h6.8c1.01 0 1.35-0.21 1.35-1.48v-1.04c0-1.27-0.34-1.48-1.35-1.48h-6.8z"/>
 <path d="m12 22.75c-0.41 0-0.75-0.34-0.75-0.75v-2.4c0-0.41 0.34-0.75 0.75-0.75s0.75 0.34 0.75 0.75v2.4c0 0.41-0.34 0.75-0.75 0.75z"/>
 <path d="m12 13.75c-0.41 0-0.75-0.34-0.75-0.75v-2c0-0.41 0.34-0.75 0.75-0.75s0.75 0.34 0.75 0.75v2c0 0.41-0.34 0.75-0.75 0.75z"/>
 <path d="m12 5.44c-0.41 0-0.75-0.34-0.75-0.75v-2.69c0-0.41 0.34-0.75 0.75-0.75s0.75 0.33 0.75 0.75v2.69c0 0.42-0.34 0.75-0.75 0.75z"/>
</svg>

<svg width="24" height="24" viewBox="0 0 24 24"  xmlns="http://www.w3.org/2000/svg">
<path d="M17.4 20H6.6C4.68 20 3.75 19.02 3.75 17.02V15.98C3.75 13.98 4.68 13 6.6 13H17.4C19.32 13 20.25 13.98 20.25 15.98V17.02C20.25 19.02 19.32 20 17.4 20ZM6.6 14.5C5.59 14.5 5.25 14.71 5.25 15.98V17.02C5.25 18.29 5.59 18.5 6.6 18.5H17.4C18.41 18.5 18.75 18.29 18.75 17.02V15.98C18.75 14.71 18.41 14.5 17.4 14.5H6.6Z" />
<path d="M15.4 11.5H8.6C6.68 11.5 5.75 10.52 5.75 8.52V7.48C5.75 5.47 6.68 4.5 8.6 4.5H15.4C17.32 4.5 18.25 5.48 18.25 7.48V8.52C18.25 10.52 17.32 11.5 15.4 11.5ZM8.6 6C7.59 6 7.25 6.21 7.25 7.48V8.52C7.25 9.79 7.59 10 8.6 10H15.4C16.41 10 16.75 9.79 16.75 8.52V7.48C16.75 6.21 16.41 6 15.4 6H8.6Z" />
<path d="M12 22.7496C11.59 22.7496 11.25 22.4096 11.25 21.9996V19.5996C11.25 19.1896 11.59 18.8496 12 18.8496C12.41 18.8496 12.75 19.1896 12.75 19.5996V21.9996C12.75 22.4096 12.41 22.7496 12 22.7496Z" />
<path d="M12 13.75C11.59 13.75 11.25 13.41 11.25 13V11C11.25 10.59 11.59 10.25 12 10.25C12.41 10.25 12.75 10.59 12.75 11V13C12.75 13.41 12.41 13.75 12 13.75Z" />
<path d="M12 5.44C11.59 5.44 11.25 5.1 11.25 4.69V2C11.25 1.59 11.59 1.25 12 1.25C12.41 1.25 12.75 1.58 12.75 2V4.69C12.75 5.11 12.41 5.44 12 5.44Z" />
</svg>
